X:77
M:4/4
L:1/4
K:Eb
E E F G | A3/2 A/ G2 | E E F G | F F E2 | E G B B | c c B2 | E G B B | c c B2 | E E F G | A3/2 A/ G2 | !sintro!E F G F | E D E2 !eintro!|]
